usr/share/icons/Stylish/32/mimetypes/x-office-spreadsheet.svg

<?xml version="1.0" encoding="UTF-8" standalone="no"?>
<!-- Created with Inkscape (http://www.inkscape.org/) -->

<svg
   width="32"
   height="32"
   viewBox="0 0 32 32.000002"
   version="1.1"
   id="svg5"
   inkscape:version="1.2.1 (9c6d41e410, 2022-07-14)"
   sodipodi:docname="x-office-spreadsheet.svg"
   xmlns:inkscape="http://www.inkscape.org/namespaces/inkscape"
   xmlns:sodipodi="http://sodipodi.sourceforge.net/DTD/sodipodi-0.dtd"
   xmlns="http://www.w3.org/2000/svg"
   xmlns:svg="http://www.w3.org/2000/svg">
  <sodipodi:namedview
     id="namedview7"
     pagecolor="#ffffff"
     bordercolor="#000000"
     borderopacity="0.25"
     inkscape:showpageshadow="2"
     inkscape:pageopacity="0.0"
     inkscape:pagecheckerboard="0"
     inkscape:deskcolor="#d1d1d1"
     inkscape:document-units="px"
     showgrid="false"
     inkscape:zoom="25.5625"
     inkscape:cx="15.98044"
     inkscape:cy="16"
     inkscape:window-width="1920"
     inkscape:window-height="1004"
     inkscape:window-x="0"
     inkscape:window-y="0"
     inkscape:window-maximized="1"
     inkscape:current-layer="svg5" />
  <defs
     id="defs2" />
  <path
     id="rect234"
     style="opacity:0.2;stroke-width:0.5;stroke-linecap:round;stroke-linejoin:round"
     d="m 7,3 h 12 l 8,8 v 18 c 0,1.108 -0.892,2 -2,2 H 7 C 5.892,31 5,30.108 5,29 V 5 C 5,3.892 5.892,3 7,3 Z"
     sodipodi:nodetypes="sccssssss" />
  <path
     id="rect448"
     style="fill:#5f9c56;fill-opacity:1;stroke-width:0.5;stroke-linecap:round;stroke-linejoin:round"
     d="m 7,2 h 12 l 3,5 5,3 v 18 c 0,1.108 -0.892,2 -2,2 H 7 C 5.892,30 5,29.108 5,28 V 4 C 5,2.892 5.892,2 7,2 Z"
     sodipodi:nodetypes="scccssssss" />
  <path
     d="M 27,11 H 21 C 19.892,11 19,10.108 19,9 V 2 l 8,8 z"
     style="opacity:0.2;fill:#000000;stroke-width:0.5;stroke-linecap:round;stroke-linejoin:round"
     id="path611"
     sodipodi:nodetypes="cssccc" />
  <path
     id="rect600"
     style="fill:#a0c89b;fill-opacity:1;stroke-width:0.5;stroke-linecap:round;stroke-linejoin:round"
     d="M 27,10 H 21 C 19.892,10 19,9.108 19,8 V 2 l 4,4 z"
     sodipodi:nodetypes="cssccc" />
  <path
     id="rect5022"
     style="fill:#ffffff;fill-opacity:1;stroke-width:0.581085;stroke-linecap:round;stroke-linejoin:round"
     d="m 9,15 v 9 h 13 v -9 z m 1,1 h 5 v 3 h -5 z m 6,0 h 5 v 3 h -5 z m -6,4 h 5 v 3 h -5 z m 6,0 h 5 v 3 h -5 z" />
</svg>

<?xml version="1.0" encoding="UTF-8" standalone="no"?>
<!-- Created with Inkscape (http://www.inkscape.org/) -->

<svg
   width="32"
   height="32"
   viewBox="0 0 32 32.000002"
   version="1.1"
   id="svg5"
   inkscape:version="1.2.2 (1:1.2.2+202305151914+b0a8486541)"
   sodipodi:docname="x-office-spreadsheet.svg"
   xmlns:inkscape="http://www.inkscape.org/namespaces/inkscape"
   xmlns:sodipodi="http://sodipodi.sourceforge.net/DTD/sodipodi-0.dtd"
   xmlns:xlink="http://www.w3.org/1999/xlink"
   xmlns="http://www.w3.org/2000/svg"
   xmlns:svg="http://www.w3.org/2000/svg">
  <sodipodi:namedview
     id="namedview7"
     pagecolor="#ffffff"
     bordercolor="#000000"
     borderopacity="0.25"
     inkscape:showpageshadow="2"
     inkscape:pageopacity="0.0"
     inkscape:pagecheckerboard="0"
     inkscape:deskcolor="#d1d1d1"
     inkscape:document-units="px"
     showgrid="false"
     inkscape:zoom="24.6875"
     inkscape:cx="15.979747"
     inkscape:cy="16"
     inkscape:window-width="1920"
     inkscape:window-height="1012"
     inkscape:window-x="0"
     inkscape:window-y="0"
     inkscape:window-maximized="1"
     inkscape:current-layer="svg5" />
  <defs
     id="defs2">
    <linearGradient
       inkscape:collect="always"
       id="linearGradient871">
      <stop
         style="stop-color:#4ba41c;stop-opacity:1;"
         offset="0"
         id="stop867" />
      <stop
         style="stop-color:#8ed64e;stop-opacity:1;"
         offset="1"
         id="stop869" />
    </linearGradient>
    <linearGradient
       inkscape:collect="always"
       xlink:href="#linearGradient871"
       id="linearGradient4088"
       x1="7"
       y1="2"
       x2="25"
       y2="30"
       gradientUnits="userSpaceOnUse" />
  </defs>
  <path
     id="rect234"
     style="opacity:0.2;stroke-width:0.5;stroke-linecap:round;stroke-linejoin:round"
     d="m 7,3 h 12 l 8,8 v 18 c 0,1.108 -0.892,2 -2,2 H 7 C 5.892,31 5,30.108 5,29 V 5 C 5,3.892 5.892,3 7,3 Z"
     sodipodi:nodetypes="sccssssss" />
  <path
     id="rect448"
     style="fill:url(#linearGradient4088);fill-opacity:1;stroke-width:0.5;stroke-linecap:round;stroke-linejoin:round"
     d="m 7,2 h 12 l 3,5 5,3 v 18 c 0,1.108 -0.892,2 -2,2 H 7 C 5.892,30 5,29.108 5,28 V 4 C 5,2.892 5.892,2 7,2 Z"
     sodipodi:nodetypes="scccssssss" />
  <path
     d="M 27,11 H 21 C 19.892,11 19,10.108 19,9 V 2 l 8,8 z"
     style="opacity:0.2;fill:#000000;stroke-width:0.5;stroke-linecap:round;stroke-linejoin:round"
     id="path611"
     sodipodi:nodetypes="cssccc" />
  <path
     id="rect600"
     style="fill:#8fde85;fill-opacity:1;stroke-width:0.5;stroke-linecap:round;stroke-linejoin:round"
     d="M 27,10 H 21 C 19.892,10 19,9.108 19,8 V 2 l 4,4 z"
     sodipodi:nodetypes="cssccc" />
  <path
     id="rect5022"
     style="fill:#ffffff;fill-opacity:1;stroke-width:0.581085;stroke-linecap:round;stroke-linejoin:round"
     d="M 10 15 A 1 1 0 0 0 9 16 L 9 23 A 1 1 0 0 0 10 24 L 21.035156 24 A 1 1 0 0 0 22 23.035156 L 22 15.964844 A 1 1 0 0 0 21.035156 15 L 10 15 z M 10 16 L 15 16 L 15 19 L 10 19 L 10 16 z M 16 16 L 21 16 L 21 19 L 16 19 L 16 16 z M 10 20 L 15 20 L 15 23 L 10 23 L 10 20 z M 16 20 L 21 20 L 21 23 L 16 23 L 16 20 z " />
</svg>
